static/images/mainTabs3.svg

<svg height="89" viewBox="0 0 61 89" width="61" xmlns="http://www.w3.org/2000/svg"><path d="m149.539609 171.496094c0 5.351589-1.621078 9.902325-4.863281 13.652344-3.242204 3.750018-7.79294 6.328117-13.652344 7.734374v.351563c6.914097.859379 12.14842 2.958968 15.703125 6.298828 3.554705 3.339861 5.332031 7.841769 5.332031 13.505859 0 8.242229-2.988251 14.658181-8.964844 19.248047-5.976592 4.589867-14.511663 6.884766-25.605468 6.884766-9.296922 0-17.5390269-1.542953-24.7265629-4.628906v-15.410157c3.3203291 1.679696 6.9726364 3.04687 10.9570309 4.101563 3.984395 1.054693 7.929668 1.582031 11.835938 1.582031 5.976592 0 10.390611-1.015615 13.242187-3.046875 2.851577-2.03126 4.277344-5.292946 4.277344-9.785156 0-4.023458-1.640608-6.874992-4.921875-8.554687-3.281266-1.679696-8.515589-2.519532-15.703125-2.519532h-6.503906v-13.886718h6.621094c6.640658 0 11.494125-.869132 14.560546-2.607422 3.066422-1.73829 4.59961-4.716776 4.59961-8.935547 0-6.484408-4.06246-9.726563-12.1875-9.726563-2.812514 0-5.673814.468746-8.583985 1.40625-2.91017.937505-6.14256 2.558582-9.697265 4.863282l-8.3789064-12.480469c7.8125394-5.625028 17.1288524-8.4375 27.9492184-8.4375 8.867232 0 15.869115 1.796857 21.00586 5.390625 5.136744 3.593768 7.705078 8.593718 7.705078 15z" fill="#caf4ff" fill-rule="evenodd" opacity=".4" transform="translate(-92 -151)"/></svg>

<?xml version="1.0" encoding="UTF-8"?>
<svg width="61px" height="89px" viewBox="0 0 61 89" version="1.1" xmlns="http://www.w3.org/2000/svg" xmlns:xlink="http://www.w3.org/1999/xlink">
    <!-- Generator: Sketch 46.2 (44496) - http://www.bohemiancoding.com/sketch -->
    <title>3</title>
    <desc>Created with Sketch.</desc>
    <defs></defs>
    <g id="Page-1" stroke="none" stroke-width="1" fill="none" fill-rule="evenodd" opacity="0.400000006">
        <g id="Home-Page-10/04/2017-screen-Use-Rakam" transform="translate(-291.000000, -1021.000000)" fill="#CAF4FF">
            <g id="How-Rakam-Works" transform="translate(160.000000, 757.000000)">
                <g id="create-a-project" transform="translate(39.000000, 113.000000)">
                    <path d="M149.539609,171.496094 C149.539609,176.847683 147.918531,181.398419 144.676328,185.148438 C141.434124,188.898456 136.883388,191.476555 131.023984,192.882812 L131.023984,193.234375 C137.938081,194.093754 143.172404,196.193343 146.727109,199.533203 C150.281814,202.873064 152.05914,207.374972 152.05914,213.039062 C152.05914,221.281291 149.070889,227.697243 143.094296,232.287109 C137.117704,236.876976 128.582633,239.171875 117.488828,239.171875 C108.191906,239.171875 99.9498011,237.628922 92.7622651,234.542969 L92.7622651,219.132812 C96.0825942,220.812508 99.7349015,222.179682 103.719296,223.234375 C107.703691,224.289068 111.648964,224.816406 115.555234,224.816406 C121.531826,224.816406 125.945845,223.800791 128.797421,221.769531 C131.648998,219.738271 133.074765,216.476585 133.074765,211.984375 C133.074765,207.960917 131.434157,205.109383 128.15289,203.429688 C124.871624,201.749992 119.637301,200.910156 112.449765,200.910156 L105.945859,200.910156 L105.945859,187.023438 L112.566953,187.023438 C119.207611,187.023438 124.061078,186.154306 127.127499,184.416016 C130.193921,182.677726 131.727109,179.69924 131.727109,175.480469 C131.727109,168.996061 127.664649,165.753906 119.539609,165.753906 C116.727095,165.753906 113.865795,166.222652 110.955624,167.160156 C108.045454,168.097661 104.813064,169.718738 101.258359,172.023438 L92.8794526,159.542969 C100.691992,153.917941 110.008305,151.105469 120.828671,151.105469 C129.695903,151.105469 136.697786,152.902326 141.834531,156.496094 C146.971275,160.089862 149.539609,165.089812 149.539609,171.496094 Z" id="3"></path>
                </g>
            </g>
        </g>
    </g>
</svg>
